tests/data/golden_compose_preserve.cube
TITLE "LUTs combined swap_rb and halve_r"
DOMAIN_MIN 0 0 0
DOMAIN_MAX 1 1 1
LUT_3D_SIZE 5
0 0 0
0 0 0.25
0 0 0.5
0 0 0.75
0 0 1
0 0.25 0
0 0.25 0.25
0 0.25 0.5
0 0.25 0.75
0 0.25 1
0 0.5 0
0 0.5 0.25
0 0.5 0.5
0 0.5 0.75
0 0.5 1
0 0.75 0
0 0.75 0.25
0 0.75 0.5
0 0.75 0.75
0 0.75 1
0 1 0
0 1 0.25
0 1 0.5
0 1 0.75
0 1 1
0.125 0 0
0.125 0 0.25
0.125 0 0.5
0.125 0 0.75
0.125 0 1
0.125 0.25 0
0.125 0.25 0.25
0.125 0.25 0.5
0.125 0.25 0.75
0.125 0.25 1
0.125 0.5 0
0.125 0.5 0.25
0.125 0.5 0.5
0.125 0.5 0.75
0.125 0.5 1
0.125 0.75 0
0.125 0.75 0.25
0.125 0.75 0.5
0.125 0.75 0.75
0.125 0.75 1
0.125 1 0
0.125 1 0.25
0.125 1 0.5
0.125 1 0.75
0.125 1 1
0.25 0 0
0.25 0 0.25
0.25 0 0.5
0.25 0 0.75
0.25 0 1
0.25 0.25 0
0.25 0.25 0.25
0.25 0.25 0.5
0.25 0.25 0.75
0.25 0.25 1
0.25 0.5 0
0.25 0.5 0.25
0.25 0.5 0.5
0.25 0.5 0.75
0.25 0.5 1
0.25 0.75 0
0.25 0.75 0.25
0.25 0.75 0.5
0.25 0.75 0.75
0.25 0.75 1
0.25 1 0
0.25 1 0.25
0.25 1 0.5
0.25 1 0.75
0.25 1 1
0.375 0 0
0.375 0 0.25
0.375 0 0.5
0.375 0 0.75
0.375 0 1
0.375 0.25 0
0.375 0.25 0.25
0.375 0.25 0.5
0.375 0.25 0.75
0.375 0.25 1
0.375 0.5 0
0.375 0.5 0.25
0.375 0.5 0.5
0.375 0.5 0.75
0.375 0.5 1
0.375 0.75 0
0.375 0.75 0.25
0.375 0.75 0.5
0.375 0.75 0.75
0.375 0.75 1
0.375 1 0
0.375 1 0.25
0.375 1 0.5
0.375 1 0.75
0.375 1 1
0.5 0 0
0.5 0 0.25
0.5 0 0.5
0.5 0 0.75
0.5 0 1
0.5 0.25 0
0.5 0.25 0.25
0.5 0.25 0.5
0.5 0.25 0.75
0.5 0.25 1
0.5 0.5 0
0.5 0.5 0.25
0.5 0.5 0.5
0.5 0.5 0.75
0.5 0.5 1
0.5 0.75 0
0.5 0.75 0.25
0.5 0.75 0.5
0.5 0.75 0.75
0.5 0.75 1
0.5 1 0
0.5 1 0.25
0.5 1 0.5
0.5 1 0.75
0.5 1 1
