tests/data/swap_rb_small.cube
TITLE "swap_rb_small"
DOMAIN_MIN 0 0 0
DOMAIN_MAX 1 1 1
LUT_3D_SIZE 3
0.000000 0.000000 0.000000
0.000000 0.000000 0.500000
0.000000 0.000000 1.000000
0.000000 0.500000 0.000000
0.000000 0.500000 0.500000
0.000000 0.500000 1.000000
0.000000 1.000000 0.000000
0.000000 1.000000 0.500000
0.000000 1.000000 1.000000
0.500000 0.000000 0.000000
0.500000 0.000000 0.500000
0.500000 0.000000 1.000000
0.500000 0.500000 0.000000
0.500000 0.500000 0.500000
0.500000 0.500000 1.000000
0.500000 1.000000 0.000000
0.500000 1.000000 0.500000
0.500000 1.000000 1.000000
1.000000 0.000000 0.000000
1.000000 0.000000 0.500000
1.000000 0.000000 1.000000
1.000000 0.500000 0.000000
1.000000 0.500000 0.500000
1.000000 0.500000 1.000000
1.000000 1.000000 0.000000
1.000000 1.000000 0.500000
1.000000 1.000000 1.000000
