tests/data/swap_rb.cube
TITLE "swap_rb"
DOMAIN_MIN 0 0 0
DOMAIN_MAX 1 1 1
LUT_3D_SIZE 5
0.000000 0.000000 0.000000
0.000000 0.000000 0.250000
0.000000 0.000000 0.500000
0.000000 0.000000 0.750000
0.000000 0.000000 1.000000
0.000000 0.250000 0.000000
0.000000 0.250000 0.250000
0.000000 0.250000 0.500000
0.000000 0.250000 0.750000
0.000000 0.250000 1.000000
0.000000 0.500000 0.000000
0.000000 0.500000 0.250000
0.000000 0.500000 0.500000
0.000000 0.500000 0.750000
0.000000 0.500000 1.000000
0.000000 0.750000 0.000000
0.000000 0.750000 0.250000
0.000000 0.750000 0.500000
0.000000 0.750000 0.750000
0.000000 0.750000 1.000000
0.000000 1.000000 0.000000
0.000000 1.000000 0.250000
0.000000 1.000000 0.500000
0.000000 1.000000 0.750000
0.000000 1.000000 1.000000
0.250000 0.000000 0.000000
0.250000 0.000000 0.250000
0.250000 0.000000 0.500000
0.250000 0.000000 0.750000
0.250000 0.000000 1.000000
0.250000 0.250000 0.000000
0.250000 0.250000 0.250000
0.250000 0.250000 0.500000
0.250000 0.250000 0.750000
0.250000 0.250000 1.000000
0.250000 0.500000 0.000000
0.250000 0.500000 0.250000
0.250000 0.500000 0.500000
0.250000 0.500000 0.750000
0.250000 0.500000 1.000000
0.250000 0.750000 0.000000
0.250000 0.750000 0.250000
0.250000 0.750000 0.500000
0.250000 0.750000 0.750000
0.250000 0.750000 1.000000
0.250000 1.000000 0.000000
0.250000 1.000000 0.250000
0.250000 1.000000 0.500000
0.250000 1.000000 0.750000
0.250000 1.000000 1.000000
0.500000 0.000000 0.000000
0.500000 0.000000 0.250000
0.500000 0.000000 0.500000
0.500000 0.000000 0.750000
0.500000 0.000000 1.000000
0.500000 0.250000 0.000000
0.500000 0.250000 0.250000
0.500000 0.250000 0.500000
0.500000 0.250000 0.750000
0.500000 0.250000 1.000000
0.500000 0.500000 0.000000
0.500000 0.500000 0.250000
0.500000 0.500000 0.500000
0.500000 0.500000 0.750000
0.500000 0.500000 1.000000
0.500000 0.750000 0.000000
0.500000 0.750000 0.250000
0.500000 0.750000 0.500000
0.500000 0.750000 0.750000
0.500000 0.750000 1.000000
0.500000 1.000000 0.000000
0.500000 1.000000 0.250000
0.500000 1.000000 0.500000
0.500000 1.000000 0.750000
0.500000 1.000000 1.000000
0.750000 0.000000 0.000000
0.750000 0.000000 0.250000
0.750000 0.000000 0.500000
0.750000 0.000000 0.750000
0.750000 0.000000 1.000000
0.750000 0.250000 0.000000
0.750000 0.250000 0.250000
0.750000 0.250000 0.500000
0.750000 0.250000 0.750000
0.750000 0.250000 1.000000
0.750000 0.500000 0.000000
0.750000 0.500000 0.250000
0.750000 0.500000 0.500000
0.750000 0.500000 0.750000
0.750000 0.500000 1.000000
0.750000 0.750000 0.000000
0.750000 0.750000 0.250000
0.750000 0.750000 0.500000
0.750000 0.750000 0.750000
0.750000 0.750000 1.000000
0.750000 1.000000 0.000000
0.750000 1.000000 0.250000
0.750000 1.000000 0.500000
0.750000 1.000000 0.750000
0.750000 1.000000 1.000000
1.000000 0.000000 0.000000
1.000000 0.000000 0.250000
1.000000 0.000000 0.500000
1.000000 0.000000 0.750000
1.000000 0.000000 1.000000
1.000000 0.250000 0.000000
1.000000 0.250000 0.250000
1.000000 0.250000 0.500000
1.000000 0.250000 0.750000
1.000000 0.250000 1.000000
1.000000 0.500000 0.000000
1.000000 0.500000 0.250000
1.000000 0.500000 0.500000
1.000000 0.500000 0.750000
1.000000 0.500000 1.000000
1.000000 0.750000 0.000000
1.000000 0.750000 0.250000
1.000000 0.750000 0.500000
1.000000 0.750000 0.750000
1.000000 0.750000 1.000000
1.000000 1.000000 0.000000
1.000000 1.000000 0.250000
1.000000 1.000000 0.500000
1.000000 1.000000 0.750000
1.000000 1.000000 1.000000
