LUTS/PQ_to_BT709_v1.cube
TITLE "PQ_to_BT709_slope"
LUT_3D_SIZE 5
# - Created by Francesco Bucciantini
0.000000 0.000000 0.000000
0.373460 0.000000 0.000000
0.850157 0.000000 0.000000
0.991683 0.000000 0.000000
0.999243 0.000000 0.000000
0.000000 0.298782 0.000000
0.289152 0.278471 0.000000
0.843967 0.000000 0.000000
0.991665 0.000000 0.000000
0.999241 0.000000 0.000000
0.000000 0.784230 0.000000
0.000000 0.782040 0.000000
0.774067 0.762280 0.000000
0.991516 0.349053 0.000000
0.999223 0.000000 0.000000
0.000000 0.990304 0.000000
0.000000 0.990298 0.000000
0.000000 0.990253 0.000000
0.990107 0.989820 0.000000
0.999083 0.747840 0.000000
0.000000 0.997865 0.000000
0.000000 0.997864 0.000000
0.000000 0.997858 0.000000
0.000000 0.997815 0.000000
0.997668 0.997444 0.000000
0.000000 0.000000 0.296535
0.364017 0.000000 0.293634
0.849409 0.000000 0.268285
0.991680 0.000000 0.000000
0.999243 0.000000 0.000000
0.000000 0.297460 0.280118
0.277061 0.277061 0.277061
0.843175 0.000000 0.250225
0.991663 0.000000 0.000000
0.999241 0.000000 0.000000
0.000000 0.784084 0.073702
0.000000 0.781892 0.066166
0.772694 0.762111 0.003182
0.991514 0.347911 0.000000
0.999223 0.000000 0.000000
0.000000 0.990303 0.000000
0.000000 0.990298 0.000000
0.000000 0.990252 0.000000
0.990104 0.989819 0.000000
0.999083 0.747652 0.000000
0.000000 0.997864 0.000000
0.000000 0.997864 0.000000
0.000000 0.997858 0.000000
0.000000 0.997815 0.000000
0.997668 0.997444 0.000000
0.000000 0.000000 0.781897
0.273447 0.000000 0.781575
0.842943 0.000000 0.778851
0.991662 0.000000 0.756114
0.999241 0.000000 0.000000
0.000000 0.286194 0.780102
0.147491 0.265017 0.779775
0.836330 0.000000 0.777016
0.991645 0.000000 0.753967
0.999239 0.000000 0.000000
0.000000 0.782860 0.764134
0.000000 0.780649 0.763769
0.760683 0.760683 0.760683
0.991495 0.338219 0.734727
0.999221 0.000000 0.000000
0.000000 0.990300 0.519781
0.000000 0.990295 0.518387
0.000000 0.990249 0.506365
0.990076 0.989812 0.387204
0.999080 0.746080 0.000000
0.000000 0.997864 0.000000
0.000000 0.997863 0.000000
0.000000 0.997858 0.000000
0.000000 0.997815 0.000000
0.997664 0.997444 0.000000
0.000000 0.000000 0.990258
0.000000 0.000000 0.990257
0.777062 0.000000 0.990251
0.991521 0.000000 0.990199
0.999224 0.000000 0.989450
0.000000 0.181472 0.990254
0.000000 0.149035 0.990253
0.765845 0.000000 0.990246
0.991503 0.000000 0.990195
0.999222 0.000000 0.989433
0.000000 0.773130 0.990217
0.000000 0.770760 0.990216
0.616273 0.749288 0.990209
0.991346 0.253138 0.990157
0.999204 0.000000 0.989279
0.000000 0.990277 0.989887
0.000000 0.990272 0.989886
0.000000 0.990226 0.989873
0.989753 0.989753 0.989753
0.999063 0.733495 0.987419
0.000000 0.997861 0.900922
0.000000 0.997861 0.900813
0.000000 0.997855 0.899899
0.000000 0.997812 0.892547
0.997638 0.997441 0.794146
0.000000 0.000000 0.997819
0.000000 0.000000 0.997819
0.000000 0.000000 0.997818
0.990090 0.000000 0.997812
0.999082 0.000000 0.997760
0.000000 0.000000 0.997819
0.000000 0.000000 0.997818
0.000000 0.000000 0.997818
0.990063 0.000000 0.997811
0.999079 0.000000 0.997760
0.000000 0.655927 0.997814
0.000000 0.651040 0.997814
0.000000 0.604281 0.997813
0.989688 0.000000 0.997807
0.999061 0.000000 0.997755
0.000000 0.990081 0.997779
0.000000 0.990075 0.997779
0.000000 0.990026 0.997778
0.952954 0.989002 0.997772
0.998914 0.566506 0.997719
0.000000 0.997838 0.997479
0.000000 0.997837 0.997479
0.000000 0.997832 0.997478
0.000000 0.997788 0.997471
0.997414 0.997414 0.997414
