LUTS/PQ_to_BT709_v1.cube
TITLE "PQ_to_BT709_slope"
LUT_3D_SIZE 9
# - Created by Francesco Bucciantini
0.000000 0.000000 0.000000
0.164268 0.000000 0.000000
0.373460 0.000000 0.000000
0.642352 0.000000 0.000000
0.850157 0.000000 0.000000
0.970032 0.000000 0.000000
0.991683 0.000000 0.000000
0.995403 0.000000 0.000000
0.999243 0.000000 0.000000
0.000000 0.122655 0.000000
0.117289 0.111337 0.000000
0.352371 0.076539 0.000000
0.635551 0.000000 0.000000
0.848504 0.000000 0.000000
0.969787 0.000000 0.000000
0.991678 0.000000 0.000000
0.995401 0.000000 0.000000
0.999243 0.000000 0.000000
0.000000 0.298782 0.000000
0.000000 0.293371 0.000000
0.289152 0.278471 0.000000
0.616116 0.228683 0.000000
0.843967 0.000000 0.000000
0.969121 0.000000 0.000000
0.991665 0.000000 0.000000
0.995397 0.000000 0.000000
0.999241 0.000000 0.000000
0.000000 0.555460 0.000000
0.000000 0.553250 0.000000
0.000000 0.547238 0.000000
0.542704 0.528086 0.000000
0.829146 0.462481 0.000000
0.967019 0.126849 0.000000
0.991627 0.000000 0.000000
0.995383 0.000000 0.000000
0.999237 0.000000 0.000000
0.000000 0.784230 0.000000
0.000000 0.783636 0.000000
0.000000 0.782040 0.000000
0.000000 0.777136 0.000000
0.774067 0.762280 0.000000
0.960144 0.711678 0.000000
0.991516 0.349053 0.000000
0.995344 0.000000 0.000000
0.999223 0.000000 0.000000
0.000000 0.937121 0.000000
0.000000 0.937002 0.000000
0.000000 0.936683 0.000000
0.000000 0.935714 0.000000
0.017175 0.932882 0.000000
0.931282 0.924303 0.000000
0.991191 0.893010 0.000000
0.995235 0.594822 0.000000
0.999187 0.000000 0.000000
0.000000 0.990304 0.000000
0.000000 0.990302 0.000000
0.000000 0.990298 0.000000
0.000000 0.990286 0.000000
0.000000 0.990253 0.000000
0.228345 0.990158 0.000000
0.990107 0.989820 0.000000
0.994917 0.984144 0.000000
0.999083 0.747840 0.000000
0.000000 0.994024 0.000000
0.000000 0.994023 0.000000
0.000000 0.994022 0.000000
0.000000 0.994018 0.000000
0.000000 0.994006 0.000000
0.000000 0.993973 0.000000
0.256099 0.993880 0.000000
0.993828 0.993604 0.000000
0.998774 0.992639 0.000000
0.000000 0.997865 0.000000
0.000000 0.997864 0.000000
0.000000 0.997864 0.000000
0.000000 0.997862 0.000000
0.000000 0.997858 0.000000
0.000000 0.997847 0.000000
0.000000 0.997815 0.000000
0.000000 0.997725 0.000000
0.997668 0.997444 0.000000
0.000000 0.000000 0.121403
0.159006 0.000000 0.119787
0.370909 0.000000 0.115402
0.641522 0.000000 0.101527
0.849954 0.000000 0.056126
0.970002 0.000000 0.000000
0.991682 0.000000 0.000000
0.995403 0.000000 0.000000
0.999243 0.000000 0.000000
0.000000 0.121918 0.112255
0.110552 0.110552 0.110552
0.349672 0.075594 0.105924
0.634691 0.000000 0.091194
0.848297 0.000000 0.044740
0.969756 0.000000 0.000000
0.991677 0.000000 0.000000
0.995401 0.000000 0.000000
0.999243 0.000000 0.000000
0.000000 0.298422 0.085090
0.000000 0.293005 0.083072
0.285901 0.278087 0.077351
0.615164 0.228227 0.060896
0.843752 0.000000 0.014367
0.969090 0.000000 0.000000
0.991665 0.000000 0.000000
0.995397 0.000000 0.000000
0.999241 0.000000 0.000000
0.000000 0.555312 0.000000
0.000000 0.553101 0.000000
0.000000 0.547085 0.000000
0.541333 0.527918 0.000000
0.828901 0.462255 0.000000
0.966985 0.126129 0.000000
0.991626 0.000000 0.000000
0.995383 0.000000 0.000000
0.999237 0.000000 0.000000
0.000000 0.784190 0.000000
0.000000 0.783597 0.000000
0.000000 0.782000 0.000000
0.000000 0.777094 0.000000
0.773694 0.762234 0.000000
0.960102 0.711614 0.000000
0.991515 0.348742 0.000000
0.995344 0.000000 0.000000
0.999223 0.000000 0.000000
0.000000 0.937113 0.000000
0.000000 0.936994 0.000000
0.000000 0.936675 0.000000
0.000000 0.935706 0.000000
0.008928 0.932873 0.000000
0.931205 0.924294 0.000000
0.991191 0.892995 0.000000
0.995235 0.594701 0.000000
0.999186 0.000000 0.000000
0.000000 0.990304 0.000000
0.000000 0.990302 0.000000
0.000000 0.990298 0.000000
0.000000 0.990286 0.000000
0.000000 0.990253 0.000000
0.224332 0.990158 0.000000
0.990106 0.989820 0.000000
0.994916 0.984142 0.000000
0.999083 0.747789 0.000000
0.000000 0.994024 0.000000
0.000000 0.994023 0.000000
0.000000 0.994022 0.000000
0.000000 0.994018 0.000000
0.000000 0.994006 0.000000
0.000000 0.993973 0.000000
0.252471 0.993880 0.000000
0.993827 0.993604 0.000000
0.998774 0.992639 0.000000
0.000000 0.997865 0.000000
0.000000 0.997864 0.000000
0.000000 0.997864 0.000000
0.000000 0.997862 0.000000
0.000000 0.997858 0.000000
0.000000 0.997847 0.000000
0.000000 0.997815 0.000000
0.000000 0.997725 0.000000
0.997668 0.997444 0.000000
0.000000 0.000000 0.296535
0.144284 0.000000 0.295747
0.364017 0.000000 0.293634
0.639290 0.000000 0.287207
0.849409 0.000000 0.268285
0.969921 0.000000 0.208649
0.991680 0.000000 0.000000
0.995402 0.000000 0.000000
0.999243 0.000000 0.000000
0.000000 0.119939 0.292142
0.091135 0.108439 0.291343
0.342373 0.073072 0.289201
0.632376 0.000000 0.282683
0.847743 0.000000 0.263469
0.969675 0.000000 0.202646
0.991676 0.000000 0.000000
0.995401 0.000000 0.000000
0.999243 0.000000 0.000000
0.000000 0.297460 0.280118
0.000000 0.292027 0.279288
0.277061 0.277061 0.277061
0.612598 0.227006 0.270280
0.843175 0.000000 0.250225
0.969006 0.000000 0.185869
0.991663 0.000000 0.000000
0.995396 0.000000 0.000000
0.999241 0.000000 0.000000
0.000000 0.554918 0.240851
0.000000 0.552703 0.239902
0.000000 0.546675 0.237353
0.537632 0.527470 0.229555
0.828245 0.461651 0.206175
0.966895 0.124195 0.126156
0.991625 0.000000 0.000000
0.995382 0.000000 0.000000
0.999236 0.000000 0.000000
0.000000 0.784084 0.073702
0.000000 0.783490 0.071647
0.000000 0.781892 0.066166
0.000000 0.776982 0.049710
0.772694 0.762111 0.003182
0.959990 0.711443 0.000000
0.991514 0.347911 0.000000
0.995344 0.000000 0.000000
0.999223 0.000000 0.000000
0.000000 0.937091 0.000000
0.000000 0.936972 0.000000
0.000000 0.936653 0.000000
0.000000 0.935684 0.000000
0.000000 0.932850 0.000000
0.930999 0.924267 0.000000
0.991189 0.892955 0.000000
0.995235 0.594376 0.000000
0.999186 0.000000 0.000000
0.000000 0.990303 0.000000
0.000000 0.990302 0.000000
0.000000 0.990298 0.000000
0.000000 0.990286 0.000000
0.000000 0.990252 0.000000
0.213319 0.990158 0.000000
0.990104 0.989819 0.000000
0.994916 0.984139 0.000000
0.999083 0.747652 0.000000
0.000000 0.994024 0.000000
0.000000 0.994023 0.000000
0.000000 0.994022 0.000000
0.000000 0.994018 0.000000
0.000000 0.994006 0.000000
0.000000 0.993973 0.000000
0.242561 0.993880 0.000000
0.993826 0.993604 0.000000
0.998774 0.992639 0.000000
0.000000 0.997864 0.000000
0.000000 0.997864 0.000000
0.000000 0.997864 0.000000
0.000000 0.997862 0.000000
0.000000 0.997858 0.000000
0.000000 0.997847 0.000000
0.000000 0.997815 0.000000
0.000000 0.997725 0.000000
0.997668 0.997444 0.000000
0.000000 0.000000 0.552519
0.091584 0.000000 0.552194
0.342534 0.000000 0.551324
0.632426 0.000000 0.548691
0.847756 0.000000 0.541061
0.969677 0.000000 0.518497
0.991676 0.000000 0.440691
0.995401 0.000000 0.000000
0.999243 0.000000 0.000000
0.000000 0.113859 0.550711
0.025161 0.101930 0.550383
0.319518 0.065503 0.549505
0.625251 0.000000 0.546849
0.846065 0.000000 0.539151
0.969428 0.000000 0.516374
0.991671 0.000000 0.437697
0.995399 0.000000 0.000000
0.999242 0.000000 0.000000
0.000000 0.294555 0.545810
0.000000 0.289072 0.545474
0.248856 0.273961 0.544576
0.604688 0.223307 0.541856
0.841426 0.000000 0.533971
0.968753 0.000000 0.510606
0.991658 0.000000 0.429607
0.995394 0.000000 0.000000
0.999241 0.000000 0.000000
0.000000 0.553732 0.530373
0.000000 0.551504 0.530012
0.000000 0.545441 0.529046
0.526118 0.526118 0.526118
0.826255 0.459828 0.517618
0.966622 0.118261 0.492314
0.991620 0.000000 0.404359
0.995381 0.000000 0.000000
0.999236 0.000000 0.000000
0.000000 0.783766 0.479596
0.000000 0.783170 0.479140
0.000000 0.781568 0.477920
0.000000 0.776647 0.474218
0.769651 0.761739 0.463407
0.959652 0.710929 0.430788
0.991509 0.345403 0.322793
0.995342 0.000000 0.000000
0.999223 0.000000 0.000000
0.000000 0.937028 0.261277
0.000000 0.936908 0.260393
0.000000 0.936589 0.258022
0.000000 0.935618 0.250786
0.000000 0.932781 0.229259
0.930376 0.924188 0.158346
0.991183 0.892835 0.000000
0.995233 0.593399 0.000000
0.999186 0.000000 0.000000
0.000000 0.990303 0.000000
0.000000 0.990301 0.000000
0.000000 0.990297 0.000000
0.000000 0.990285 0.000000
0.000000 0.990252 0.000000
0.176977 0.990157 0.000000
0.990097 0.989817 0.000000
0.994914 0.984127 0.000000
0.999082 0.747243 0.000000
0.000000 0.994024 0.000000
0.000000 0.994023 0.000000
0.000000 0.994022 0.000000
0.000000 0.994017 0.000000
0.000000 0.994005 0.000000
0.000000 0.993972 0.000000
0.210450 0.993879 0.000000
0.993824 0.993603 0.000000
0.998773 0.992638 0.000000
0.000000 0.997864 0.000000
0.000000 0.997864 0.000000
0.000000 0.997864 0.000000
0.000000 0.997862 0.000000
0.000000 0.997858 0.000000
0.000000 0.997847 0.000000
0.000000 0.997815 0.000000
0.000000 0.997725 0.000000
0.997667 0.997444 0.000000
0.000000 0.000000 0.781897
0.000000 0.000000 0.781810
0.273447 0.000000 0.781575
0.611561 0.000000 0.780868
0.842943 0.000000 0.778851
0.968972 0.000000 0.773139
0.991662 0.000000 0.756114
0.995396 0.000000 0.694568
0.999241 0.000000 0.000000
0.000000 0.095396 0.781410
0.000000 0.081958 0.781322
0.244658 0.044099 0.781086
0.603549 0.000000 0.780377
0.841178 0.000000 0.778353
0.968717 0.000000 0.772620
0.991658 0.000000 0.755532
0.995394 0.000000 0.693712
0.999240 0.000000 0.000000
0.000000 0.286194 0.780102
0.000000 0.280562 0.780013
0.147491 0.265017 0.779775
0.580439 0.212554 0.779059
0.836330 0.000000 0.777016
0.968024 0.000000 0.771228
0.991645 0.000000 0.753967
0.995390 0.000000 0.691409
0.999239 0.000000 0.000000
0.000000 0.550340 0.776099
0.000000 0.548075 0.776007
0.000000 0.541911 0.775763
0.489789 0.522250 0.775027
0.820444 0.454594 0.772924
0.965836 0.100301 0.766965
0.991606 0.000000 0.749168
0.995376 0.000000 0.684303
0.999234 0.000000 0.000000
0.000000 0.782860 0.764134
0.000000 0.782261 0.764035
0.000000 0.780649 0.763769
0.000000 0.775694 0.762969
0.760683 0.760683 0.760683
0.958680 0.709467 0.754194
0.991495 0.338219 0.734727
0.995337 0.000000 0.662499
0.999221 0.000000 0.000000
0.000000 0.936846 0.725150
0.000000 0.936727 0.725022
0.000000 0.936406 0.724680
0.000000 0.935432 0.723648
0.000000 0.932586 0.720694
0.928578 0.923964 0.712264
0.991168 0.892494 0.686551
0.995228 0.590610 0.584346
0.999184 0.000000 0.000000
0.000000 0.990300 0.519781
0.000000 0.990299 0.519402
0.000000 0.990295 0.518387
0.000000 0.990283 0.515310
0.000000 0.990249 0.506365
0.021990 0.990155 0.479649
0.990076 0.989812 0.387204
0.994908 0.984093 0.000000
0.999080 0.746080 0.000000
0.000000 0.994023 0.000000
0.000000 0.994022 0.000000
0.000000 0.994021 0.000000
0.000000 0.994017 0.000000
0.000000 0.994005 0.000000
0.000000 0.993972 0.000000
0.082700 0.993879 0.000000
0.993816 0.993603 0.000000
0.998771 0.992637 0.000000
0.000000 0.997864 0.000000
0.000000 0.997864 0.000000
0.000000 0.997863 0.000000
0.000000 0.997862 0.000000
0.000000 0.997858 0.000000
0.000000 0.997847 0.000000
0.000000 0.997815 0.000000
0.000000 0.997725 0.000000
0.997664 0.997444 0.000000
0.000000 0.000000 0.935796
0.000000 0.000000 0.935778
0.000000 0.000000 0.935731
0.539209 0.000000 0.935588
0.828524 0.000000 0.935183
0.966933 0.000000 0.934052
0.991625 0.000000 0.930815
0.995383 0.000000 0.920648
0.999236 0.000000 0.878214
0.000000 0.036830 0.935697
0.000000 0.022730 0.935679
0.000000 0.000000 0.935632
0.527697 0.000000 0.935489
0.826524 0.000000 0.935083
0.966659 0.000000 0.933950
0.991620 0.000000 0.930708
0.995381 0.000000 0.920522
0.999236 0.000000 0.878001
0.000000 0.261917 0.935434
0.000000 0.255811 0.935416
0.000000 0.238858 0.935368
0.493594 0.180268 0.935225
0.821021 0.000000 0.934817
0.965913 0.000000 0.933678
0.991608 0.000000 0.930420
0.995376 0.000000 0.920185
0.999234 0.000000 0.877430
0.000000 0.540699 0.934635
0.000000 0.538327 0.934617
0.000000 0.531868 0.934569
0.351567 0.511217 0.934423
0.802871 0.439523 0.934010
0.963561 0.042285 0.932855
0.991568 0.000000 0.929550
0.995363 0.000000 0.919164
0.999230 0.000000 0.875693
0.000000 0.780335 0.932315
0.000000 0.779724 0.932296
0.000000 0.778083 0.932246
0.000000 0.773036 0.932094
0.732779 0.757733 0.931664
0.955863 0.705370 0.930462
0.991456 0.317632 0.927021
0.995324 0.000000 0.916191
0.999216 0.000000 0.870607
0.000000 0.936344 0.925415
0.000000 0.936223 0.925394
0.000000 0.935900 0.925338
0.000000 0.934917 0.925168
0.000000 0.932044 0.924687
0.923341 0.923341 0.923341
0.991125 0.891548 0.919484
0.995214 0.582717 0.907298
0.999179 0.000000 0.855083
0.000000 0.990294 0.901655
0.000000 0.990293 0.901625
0.000000 0.990289 0.901547
0.000000 0.990277 0.901311
0.000000 0.990243 0.900641
0.000000 0.990148 0.898764
0.990018 0.989797 0.893357
0.994893 0.984000 0.876014
0.999076 0.742828 0.796125
0.000000 0.994021 0.749426
0.000000 0.994020 0.749317
0.000000 0.994019 0.749024
0.000000 0.994014 0.748140
0.000000 0.994002 0.745615
0.000000 0.993969 0.738435
0.000000 0.993876 0.716762
0.993796 0.993600 0.634412
0.998766 0.992634 0.000000
0.000000 0.997863 0.000000
0.000000 0.997863 0.000000
0.000000 0.997863 0.000000
0.000000 0.997861 0.000000
0.000000 0.997857 0.000000
0.000000 0.997846 0.000000
0.000000 0.997814 0.000000
0.000000 0.997724 0.000000
0.997657 0.997443 0.000000
0.000000 0.000000 0.990258
0.000000 0.000000 0.990258
0.000000 0.000000 0.990257
0.000000 0.000000 0.990256
0.777062 0.000000 0.990251
0.960482 0.000000 0.990237
0.991521 0.000000 0.990199
0.995346 0.000000 0.990090
0.999224 0.000000 0.989450
0.000000 0.000000 0.990257
0.000000 0.000000 0.990257
0.000000 0.000000 0.990256
0.000000 0.000000 0.990255
0.774090 0.000000 0.990250
0.960146 0.000000 0.990236
0.991516 0.000000 0.990198
0.995344 0.000000 0.990089
0.999223 0.000000 0.989446
0.000000 0.181472 0.990254
0.000000 0.173094 0.990254
0.000000 0.149035 0.990253
0.000000 0.051740 0.990251
0.765845 0.000000 0.990246
0.959235 0.000000 0.990233
0.991503 0.000000 0.990195
0.995340 0.000000 0.990086
0.999222 0.000000 0.989433
0.000000 0.511611 0.990244
0.000000 0.508893 0.990244
0.000000 0.501473 0.990243
0.000000 0.477568 0.990242
0.737920 0.394515 0.990237
0.956360 0.000000 0.990223
0.991462 0.000000 0.990185
0.995326 0.000000 0.990075
0.999217 0.000000 0.989395
0.000000 0.773130 0.990217
0.000000 0.772487 0.990216
0.000000 0.770760 0.990216
0.000000 0.765444 0.990214
0.616273 0.749288 0.990209
0.946929 0.693534 0.990195
0.991346 0.253138 0.990157
0.995287 0.000000 0.990047
0.999204 0.000000 0.989279
0.000000 0.934935 0.990140
0.000000 0.934811 0.990139
0.000000 0.934480 0.990139
0.000000 0.933472 0.990137
0.000000 0.930526 0.990132
0.906385 0.921595 0.990118
0.991005 0.888884 0.990079
0.995176 0.559224 0.989960
0.999167 0.000000 0.988905
0.000000 0.990277 0.989887
0.000000 0.990276 0.989887
0.000000 0.990272 0.989886
0.000000 0.990260 0.989882
0.000000 0.990226 0.989873
0.000000 0.990130 0.989844
0.989753 0.989753 0.989753
0.994851 0.983740 0.989402
0.999063 0.733495 0.987419
0.000000 0.994015 0.986333
0.000000 0.994014 0.986331
0.000000 0.994013 0.986324
0.000000 0.994008 0.986305
0.000000 0.993996 0.986250
0.000000 0.993963 0.986097
0.000000 0.993870 0.985655
0.993739 0.993593 0.984246
0.998752 0.992625 0.978437
0.000000 0.997861 0.900922
0.000000 0.997861 0.900892
0.000000 0.997861 0.900813
0.000000 0.997859 0.900575
0.000000 0.997855 0.899899
0.000000 0.997844 0.898004
0.000000 0.997812 0.892547
0.000000 0.997722 0.875032
0.997638 0.997441 0.794146
0.000000 0.000000 0.993979
0.000000 0.000000 0.993979
0.000000 0.000000 0.993978
0.000000 0.000000 0.993978
0.191930 0.000000 0.993976
0.933280 0.000000 0.993971
0.991209 0.000000 0.993958
0.995241 0.000000 0.993920
0.999189 0.000000 0.993805
0.000000 0.000000 0.993978
0.000000 0.000000 0.993978
0.000000 0.000000 0.993978
0.000000 0.000000 0.993977
0.151411 0.000000 0.993976
0.932676 0.000000 0.993971
0.991204 0.000000 0.993957
0.995239 0.000000 0.993919
0.999188 0.000000 0.993804
0.000000 0.000000 0.993977
0.000000 0.000000 0.993977
0.000000 0.000000 0.993977
0.000000 0.000000 0.993976
0.000000 0.000000 0.993974
0.931034 0.000000 0.993970
0.991189 0.000000 0.993956
0.995235 0.000000 0.993918
0.999186 0.000000 0.993803
0.000000 0.401873 0.993974
0.000000 0.397804 0.993973
0.000000 0.386745 0.993973
0.000000 0.351532 0.993973
0.000000 0.226405 0.993971
0.925822 0.000000 0.993966
0.991145 0.000000 0.993953
0.995220 0.000000 0.993914
0.999182 0.000000 0.993799
0.000000 0.750639 0.993964
0.000000 0.749891 0.993964
0.000000 0.747876 0.993964
0.000000 0.741663 0.993963
0.000000 0.722631 0.993961
0.908384 0.655015 0.993956
0.991018 0.000000 0.993943
0.995180 0.000000 0.993905
0.999168 0.000000 0.993789
0.000000 0.930766 0.993937
0.000000 0.930633 0.993937
0.000000 0.930277 0.993936
0.000000 0.929195 0.993936
0.000000 0.926028 0.993934
0.824782 0.916410 0.993929
0.990643 0.880909 0.993916
0.995066 0.474069 0.993877
0.999131 0.000000 0.993761
0.000000 0.990228 0.993861
0.000000 0.990227 0.993861
0.000000 0.990223 0.993861
0.000000 0.990211 0.993860
0.000000 0.990176 0.993858
0.000000 0.990080 0.993853
0.987361 0.989610 0.993840
0.994731 0.982965 0.993800
0.999026 0.703799 0.993681
0.000000 0.993997 0.993639
0.000000 0.993997 0.993639
0.000000 0.993995 0.993639
0.000000 0.993991 0.993638
0.000000 0.993979 0.993636
0.000000 0.993946 0.993631
0.000000 0.993852 0.993616
0.993574 0.993574 0.993574
0.998711 0.992600 0.993447
0.000000 0.997855 0.992889
0.000000 0.997855 0.992889
0.000000 0.997855 0.992889
0.000000 0.997853 0.992888
0.000000 0.997849 0.992885
0.000000 0.997838 0.992879
0.000000 0.997806 0.992861
0.000000 0.997716 0.992809
0.997583 0.997434 0.992652
0.000000 0.000000 0.997819
0.000000 0.000000 0.997819
0.000000 0.000000 0.997819
0.000000 0.000000 0.997819
0.000000 0.000000 0.997818
0.139412 0.000000 0.997817
0.990090 0.000000 0.997812
0.994912 0.000000 0.997799
0.999082 0.000000 0.997760
0.000000 0.000000 0.997819
0.000000 0.000000 0.997819
0.000000 0.000000 0.997819
0.000000 0.000000 0.997819
0.000000 0.000000 0.997818
0.084490 0.000000 0.997816
0.990083 0.000000 0.997812
0.994910 0.000000 0.997799
0.999081 0.000000 0.997760
0.000000 0.000000 0.997819
0.000000 0.000000 0.997819
0.000000 0.000000 0.997818
0.000000 0.000000 0.997818
0.000000 0.000000 0.997818
0.000000 0.000000 0.997816
0.990063 0.000000 0.997811
0.994905 0.000000 0.997798
0.999079 0.000000 0.997760
0.000000 0.000000 0.997817
0.000000 0.000000 0.997817
0.000000 0.000000 0.997817
0.000000 0.000000 0.997817
0.000000 0.000000 0.997816
0.000000 0.000000 0.997815
0.990003 0.000000 0.997810
0.994889 0.000000 0.997797
0.999075 0.000000 0.997758
0.000000 0.655927 0.997814
0.000000 0.654608 0.997814
0.000000 0.651040 0.997814
0.000000 0.639894 0.997814
0.000000 0.604281 0.997813
0.000000 0.452176 0.997811
0.989688 0.000000 0.997807
0.994845 0.000000 0.997794
0.999061 0.000000 0.997755
0.000000 0.916524 0.997805
0.000000 0.916359 0.997805
0.000000 0.915916 0.997805
0.000000 0.914568 0.997804
0.000000 0.910614 0.997804
0.000000 0.898516 0.997802
0.986991 0.852541 0.997798
0.994719 0.000000 0.997784
0.999022 0.000000 0.997746
0.000000 0.990081 0.997779
0.000000 0.990079 0.997779
0.000000 0.990075 0.997779
0.000000 0.990062 0.997779
0.000000 0.990026 0.997778
0.000000 0.989900 0.997776
0.952954 0.989002 0.997772
0.994349 0.980313 0.997759
0.998914 0.566506 0.997719
0.000000 0.993946 0.997706
0.000000 0.993946 0.997706
0.000000 0.993944 0.997705
0.000000 0.993940 0.997705
0.000000 0.993928 0.997705
0.000000 0.993894 0.997703
0.000000 0.993799 0.997698
0.993037 0.993516 0.997685
0.998589 0.992524 0.997645
0.000000 0.997838 0.997479
0.000000 0.997838 0.997479
0.000000 0.997837 0.997479
0.000000 0.997836 0.997479
0.000000 0.997832 0.997478
0.000000 0.997820 0.997476
0.000000 0.997788 0.997471
0.000000 0.997697 0.997457
0.997414 0.997414 0.997414
