LUTS/PQ_to_BT709_v1.cube
TITLE "PQ_to_BT709_slope"
LUT_3D_SIZE 65
# - Created by Francesco Bucciantini
0.000000 0.000000 0.000000
0.025484 0.000000 0.000000
0.045503 0.000000 0.000000
0.065639 0.000000 0.000000
0.086664 0.000000 0.000000
0.106474 0.000000 0.000000
0.124843 0.000000 0.000000
0.144019 0.000000 0.000000
0.164268 0.000000 0.000000
0.185663 0.000000 0.000000
0.208272 0.000000 0.000000
0.232165 0.000000 0.000000
0.257413 0.000000 0.000000
0.284089 0.000000 0.000000
0.312269 0.000000 0.000000
0.342031 0.000000 0.000000
0.373460 0.000000 0.000000
0.406644 0.000000 0.000000
0.441676 0.000000 0.000000
0.477305 0.000000 0.000000
0.512128 0.000000 0.000000
0.546092 0.000000 0.000000
0.579148 0.000000 0.000000
0.611250 0.000000 0.000000
0.642352 0.000000 0.000000
0.672411 0.000000 0.000000
0.701385 0.000000 0.000000
0.729233 0.000000 0.000000
0.755914 0.000000 0.000000
0.781387 0.000000 0.000000
0.805612 0.000000 0.000000
0.828549 0.000000 0.000000
0.850157 0.000000 0.000000
0.870395 0.000000 0.000000
0.889221 0.000000 0.000000
0.906591 0.000000 0.000000
0.922462 0.000000 0.000000
0.936789 0.000000 0.000000
0.949525 0.000000 0.000000
0.960623 0.000000 0.000000
0.970032 0.000000 0.000000
0.977702 0.000000 0.000000
0.983577 0.000000 0.000000
0.987604 0.000000 0.000000
0.989722 0.000000 0.000000
0.990301 0.000000 0.000000
0.990761 0.000000 0.000000
0.991222 0.000000 0.000000
0.991683 0.000000 0.000000
0.992144 0.000000 0.000000
0.992606 0.000000 0.000000
0.993069 0.000000 0.000000
0.993533 0.000000 0.000000
0.993998 0.000000 0.000000
0.994465 0.000000 0.000000
0.994933 0.000000 0.000000
0.995403 0.000000 0.000000
0.995875 0.000000 0.000000
0.996348 0.000000 0.000000
0.996824 0.000000 0.000000
0.997303 0.000000 0.000000
0.997783 0.000000 0.000000
0.998267 0.000000 0.000000
0.998754 0.000000 0.000000
0.999243 0.000000 0.000000
0.000000 0.017387 0.000000
0.016465 0.015476 0.000000
0.036484 0.013974 0.000000
0.056620 0.012464 0.000000
0.077489 0.010898 0.000000
0.098594 0.009259 0.000000
0.117777 0.007555 0.000000
0.137649 0.005585 0.000000
0.158507 0.003287 0.000000
0.180438 0.000614 0.000000
0.203522 0.000000 0.000000
0.227837 0.000000 0.000000
0.253462 0.000000 0.000000
0.280475 0.000000 0.000000
0.308957 0.000000 0.000000
0.338993 0.000000 0.000000
0.370669 0.000000 0.000000
0.404076 0.000000 0.000000
0.439311 0.000000 0.000000
0.475278 0.000000 0.000000
0.510398 0.000000 0.000000
0.544616 0.000000 0.000000
0.577891 0.000000 0.000000
0.610181 0.000000 0.000000
0.641444 0.000000 0.000000
0.671642 0.000000 0.000000
0.700735 0.000000 0.000000
0.728684 0.000000 0.000000
0.755452 0.000000 0.000000
0.781000 0.000000 0.000000
0.805289 0.000000 0.000000
0.828280 0.000000 0.000000
0.849935 0.000000 0.000000
0.870212 0.000000 0.000000
0.889071 0.000000 0.000000
0.906470 0.000000 0.000000
0.922365 0.000000 0.000000
0.936712 0.000000 0.000000
0.949466 0.000000 0.000000
0.960578 0.000000 0.000000
0.969999 0.000000 0.000000
0.977678 0.000000 0.000000
0.983562 0.000000 0.000000
0.987595 0.000000 0.000000
0.989720 0.000000 0.000000
0.990300 0.000000 0.000000
0.990760 0.000000 0.000000
0.991221 0.000000 0.000000
0.991682 0.000000 0.000000
0.992144 0.000000 0.000000
0.992606 0.000000 0.000000
0.993069 0.000000 0.000000
0.993533 0.000000 0.000000
0.993998 0.000000 0.000000
0.994465 0.000000 0.000000
0.994933 0.000000 0.000000
0.995403 0.000000 0.000000
0.995874 0.000000 0.000000
0.996348 0.000000 0.000000
0.996824 0.000000 0.000000
0.997302 0.000000 0.000000
0.997783 0.000000 0.000000
0.998267 0.000000 0.000000
0.998754 0.000000 0.000000
0.999243 0.000000 0.000000
0.000000 0.031045 0.000000
0.009381 0.029134 0.000000
0.029400 0.027632 0.000000
0.049536 0.026122 0.000000
0.070405 0.024556 0.000000
0.092125 0.022917 0.000000
0.112022 0.021213 0.000000
0.132494 0.019243 0.000000
0.153869 0.016945 0.000000
0.176248 0.014272 0.000000
0.199725 0.011167 0.000000
0.224387 0.007568 0.000000
0.250319 0.003404 0.000000
0.277605 0.000000 0.000000
0.306333 0.000000 0.000000
0.336588 0.000000 0.000000
0.368462 0.000000 0.000000
0.402048 0.000000 0.000000
0.437444 0.000000 0.000000
0.473673 0.000000 0.000000
0.509029 0.000000 0.000000
0.543450 0.000000 0.000000
0.576899 0.000000 0.000000
0.609337 0.000000 0.000000
0.640728 0.000000 0.000000
0.671035 0.000000 0.000000
0.700222 0.000000 0.000000
0.728252 0.000000 0.000000
0.755088 0.000000 0.000000
0.780695 0.000000 0.000000
0.805034 0.000000 0.000000
0.828068 0.000000 0.000000
0.849759 0.000000 0.000000
0.870068 0.000000 0.000000
0.888953 0.000000 0.000000
0.906374 0.000000 0.000000
0.922289 0.000000 0.000000
0.936652 0.000000 0.000000
0.949419 0.000000 0.000000
0.960542 0.000000 0.000000
0.969973 0.000000 0.000000
0.977660 0.000000 0.000000
0.983551 0.000000 0.000000
0.987589 0.000000 0.000000
0.989717 0.000000 0.000000
0.990299 0.000000 0.000000
0.990760 0.000000 0.000000
0.991220 0.000000 0.000000
0.991682 0.000000 0.000000
0.992143 0.000000 0.000000
0.992605 0.000000 0.000000
0.993068 0.000000 0.000000
0.993533 0.000000 0.000000
0.993998 0.000000 0.000000
0.994465 0.000000 0.000000
0.994933 0.000000 0.000000
0.995403 0.000000 0.000000
0.995874 0.000000 0.000000
0.996348 0.000000 0.000000
0.996824 0.000000 0.000000
0.997302 0.000000 0.000000
0.997783 0.000000 0.000000
0.998267 0.000000 0.000000
0.998754 0.000000 0.000000
0.999243 0.000000 0.000000
0.000000 0.044783 0.000000
0.002255 0.042872 0.000000
0.022273 0.041370 0.000000
0.042410 0.039860 0.000000
0.063278 0.038295 0.000000
0.085335 0.036655 0.000000
0.106033 0.034951 0.000000
0.127163 0.032981 0.000000
0.149096 0.030684 0.000000
0.171954 0.028010 0.000000
0.195846 0.024905 0.000000
0.220871 0.021306 0.000000
0.247122 0.017142 0.000000
0.274692 0.012333 0.000000
0.303672 0.006789 0.000000
0.334153 0.000408 0.000000
0.366229 0.000000 0.000000
0.399997 0.000000 0.000000
0.435558 0.000000 0.000000
0.472046 0.000000 0.000000
0.507643 0.000000 0.000000
0.542270 0.000000 0.000000
0.575895 0.000000 0.000000
0.608485 0.000000 0.000000
0.640005 0.000000 0.000000
0.670423 0.000000 0.000000
0.699704 0.000000 0.000000
0.727815 0.000000 0.000000
0.754721 0.000000 0.000000
0.780387 0.000000 0.000000
0.804777 0.000000 0.000000
0.827855 0.000000 0.000000
0.849583 0.000000 0.000000
0.869923 0.000000 0.000000
0.888835 0.000000 0.000000
0.906278 0.000000 0.000000
0.922212 0.000000 0.000000
0.936591 0.000000 0.000000
0.949372 0.000000 0.000000
0.960507 0.000000 0.000000
0.969947 0.000000 0.000000
0.977642 0.000000 0.000000
0.983539 0.000000 0.000000
0.987582 0.000000 0.000000
0.989715 0.000000 0.000000
0.990299 0.000000 0.000000
0.990759 0.000000 0.000000
0.991220 0.000000 0.000000
0.991681 0.000000 0.000000
0.992143 0.000000 0.000000
0.992605 0.000000 0.000000
0.993068 0.000000 0.000000
0.993532 0.000000 0.000000
0.993998 0.000000 0.000000
0.994464 0.000000 0.000000
0.994932 0.000000 0.000000
0.995402 0.000000 0.000000
0.995874 0.000000 0.000000
0.996348 0.000000 0.000000
0.996824 0.000000 0.000000
0.997302 0.000000 0.000000
0.997783 0.000000 0.000000
0.998267 0.000000 0.000000
0.998753 0.000000 0.000000
0.999243 0.000000 0.000000
0.000000 0.059022 0.000000
0.000000 0.057110 0.000000
0.014888 0.055608 0.000000
0.035024 0.054098 0.000000
0.055893 0.052533 0.000000
0.077752 0.050893 0.000000
0.099591 0.049189 0.000000
0.121472 0.047219 0.000000
0.144028 0.044922 0.000000
0.167414 0.042248 0.000000
0.191759 0.039143 0.000000
0.217176 0.035544 0.000000
0.243771 0.031380 0.000000
0.271643 0.026572 0.000000
0.300891 0.021027 0.000000
0.331611 0.014646 0.000000
0.363901 0.007311 0.000000
0.397861 0.000000 0.000000
0.433595 0.000000 0.000000
0.470348 0.000000 0.000000
0.506197 0.000000 0.000000
0.541040 0.000000 0.000000
0.574850 0.000000 0.000000
0.607597 0.000000 0.000000
0.639253 0.000000 0.000000
0.669786 0.000000 0.000000
0.699166 0.000000 0.000000
0.727362 0.000000 0.000000
0.754340 0.000000 0.000000
0.780068 0.000000 0.000000
0.804511 0.000000 0.000000
0.827633 0.000000 0.000000
0.849399 0.000000 0.000000
0.869772 0.000000 0.000000
0.888712 0.000000 0.000000
0.906179 0.000000 0.000000
0.922132 0.000000 0.000000
0.936529 0.000000 0.000000
0.949323 0.000000 0.000000
0.960470 0.000000 0.000000
0.969920 0.000000 0.000000
0.977623 0.000000 0.000000
0.983527 0.000000 0.000000
0.987576 0.000000 0.000000
0.989713 0.000000 0.000000
0.990298 0.000000 0.000000
0.990758 0.000000 0.000000
0.991219 0.000000 0.000000
0.991680 0.000000 0.000000
0.992142 0.000000 0.000000
0.992605 0.000000 0.000000
0.993068 0.000000 0.000000
0.993532 0.000000 0.000000
0.993997 0.000000 0.000000
0.994464 0.000000 0.000000
0.994932 0.000000 0.000000
0.995402 0.000000 0.000000
0.995874 0.000000 0.000000
0.996348 0.000000 0.000000
0.996824 0.000000 0.000000
0.997302 0.000000 0.000000
0.997783 0.000000 0.000000
0.998267 0.000000 0.000000
0.998753 0.000000 0.000000
0.999243 0.000000 0.000000
0.000000 0.073936 0.000000
0.000000 0.072024 0.000000
0.007152 0.070522 0.000000
0.027288 0.069012 0.000000
0.048157 0.067447 0.000000
0.070017 0.065807 0.000000
0.092558 0.064103 0.000000
0.115311 0.062133 0.000000
0.138577 0.059836 0.000000
0.162554 0.057162 0.000000
0.187400 0.054057 0.000000
0.213248 0.050458 0.000000
0.240217 0.046294 0.000000
0.268417 0.041485 0.000000
0.297953 0.035941 0.000000
0.328928 0.029560 0.000000
0.361447 0.022225 0.000000
0.395612 0.013805 0.000000
0.431530 0.004154 0.000000
0.468556 0.000000 0.000000
0.504673 0.000000 0.000000
0.539745 0.000000 0.000000
0.573749 0.000000 0.000000
0.606663 0.000000 0.000000
0.638461 0.000000 0.000000
0.669117 0.000000 0.000000
0.698601 0.000000 0.000000
0.726886 0.000000 0.000000
0.753940 0.000000 0.000000
0.779733 0.000000 0.000000
0.804231 0.000000 0.000000
0.827401 0.000000 0.000000
0.849207 0.000000 0.000000
0.869614 0.000000 0.000000
0.888583 0.000000 0.000000
0.906074 0.000000 0.000000
0.922049 0.000000 0.000000
0.936462 0.000000 0.000000
0.949272 0.000000 0.000000
0.960431 0.000000 0.000000
0.969891 0.000000 0.000000
0.977603 0.000000 0.000000
0.983514 0.000000 0.000000
0.987569 0.000000 0.000000
0.989711 0.000000 0.000000
0.990297 0.000000 0.000000
0.990758 0.000000 0.000000
0.991219 0.000000 0.000000
0.991680 0.000000 0.000000
0.992142 0.000000 0.000000
0.992604 0.000000 0.000000
0.993067 0.000000 0.000000
0.993532 0.000000 0.000000
0.993997 0.000000 0.000000
0.994464 0.000000 0.000000
0.994932 0.000000 0.000000
0.995402 0.000000 0.000000
0.995874 0.000000 0.000000
0.996348 0.000000 0.000000
0.996824 0.000000 0.000000
0.997302 0.000000 0.000000
0.997783 0.000000 0.000000
0.998267 0.000000 0.000000
0.998753 0.000000 0.000000
0.999243 0.000000 0.000000
0.000000 0.089462 0.000000
0.000000 0.087639 0.000000
0.000000 0.086191 0.000000
0.019250 0.084720 0.000000
0.040119 0.083181 0.000000
0.061978 0.081552 0.000000
0.084899 0.079600 0.000000
0.108671 0.077630 0.000000
0.132746 0.075332 0.000000
0.157385 0.072659 0.000000
0.182785 0.069554 0.000000
0.209102 0.065955 0.000000
0.236475 0.061791 0.000000
0.265027 0.056982 0.000000
0.294871 0.051438 0.000000
0.326119 0.045056 0.000000
0.358880 0.037721 0.000000
0.393261 0.029302 0.000000
0.429373 0.019650 0.000000
0.466678 0.008600 0.000000
0.503077 0.000000 0.000000
0.538390 0.000000 0.000000
0.572599 0.000000 0.000000
0.605688 0.000000 0.000000
0.637636 0.000000 0.000000
0.668418 0.000000 0.000000
0.698012 0.000000 0.000000
0.726389 0.000000 0.000000
0.753523 0.000000 0.000000
0.779383 0.000000 0.000000
0.803939 0.000000 0.000000
0.827158 0.000000 0.000000
0.849007 0.000000 0.000000
0.869449 0.000000 0.000000
0.888448 0.000000 0.000000
0.905966 0.000000 0.000000
0.921962 0.000000 0.000000
0.936394 0.000000 0.000000
0.949219 0.000000 0.000000
0.960390 0.000000 0.000000
0.969862 0.000000 0.000000
0.977582 0.000000 0.000000
0.983500 0.000000 0.000000
0.987561 0.000000 0.000000
0.989708 0.000000 0.000000
0.990296 0.000000 0.000000
0.990757 0.000000 0.000000
0.991218 0.000000 0.000000
0.991679 0.000000 0.000000
0.992141 0.000000 0.000000
0.992604 0.000000 0.000000
0.993067 0.000000 0.000000
0.993531 0.000000 0.000000
0.993997 0.000000 0.000000
0.994464 0.000000 0.000000
0.994932 0.000000 0.000000
0.995402 0.000000 0.000000
0.995874 0.000000 0.000000
0.996347 0.000000 0.000000
0.996823 0.000000 0.000000
0.997302 0.000000 0.000000
0.997783 0.000000 0.000000
0.998267 0.000000 0.000000
0.998753 0.000000 0.000000
0.999243 0.000000 0.000000
0.000000 0.105606 0.000000
0.000000 0.103959 0.000000
0.000000 0.102653 0.000000
0.009954 0.101329 0.000000
0.030823 0.099946 0.000000
0.052682 0.098484 0.000000
0.075396 0.096951 0.000000
0.100653 0.095159 0.000000
0.125771 0.093044 0.000000
0.151244 0.090547 0.000000
0.177328 0.087595 0.000000
0.204221 0.084100 0.000000
0.232084 0.079712 0.000000
0.261058 0.074903 0.000000
0.291270 0.069359 0.000000
0.322842 0.062978 0.000000
0.355889 0.055642 0.000000
0.390525 0.047223 0.000000
0.426865 0.037572 0.000000
0.464487 0.026521 0.000000
0.501218 0.013882 0.000000
0.536812 0.000000 0.000000
0.571261 0.000000 0.000000
0.604555 0.000000 0.000000
0.636676 0.000000 0.000000
0.667607 0.000000 0.000000
0.697327 0.000000 0.000000
0.725813 0.000000 0.000000
0.753039 0.000000 0.000000
0.778978 0.000000 0.000000
0.803601 0.000000 0.000000
0.826878 0.000000 0.000000
0.848775 0.000000 0.000000
0.869258 0.000000 0.000000
0.888293 0.000000 0.000000
0.905840 0.000000 0.000000
0.921861 0.000000 0.000000
0.936314 0.000000 0.000000
0.949157 0.000000 0.000000
0.960344 0.000000 0.000000
0.969827 0.000000 0.000000
0.977558 0.000000 0.000000
0.983485 0.000000 0.000000
0.987553 0.000000 0.000000
0.989705 0.000000 0.000000
0.990295 0.000000 0.000000
0.990756 0.000000 0.000000
0.991217 0.000000 0.000000
0.991679 0.000000 0.000000
0.992141 0.000000 0.000000
0.992603 0.000000 0.000000
0.993067 0.000000 0.000000
0.993531 0.000000 0.000000
0.993996 0.000000 0.000000
0.994463 0.000000 0.000000
0.994932 0.000000 0.000000
0.995402 0.000000 0.000000
0.995873 0.000000 0.000000
0.996347 0.000000 0.000000
0.996823 0.000000 0.000000
0.997302 0.000000 0.000000
0.997783 0.000000 0.000000
0.998266 0.000000 0.000000
0.998753 0.000000 0.000000
0.999243 0.000000 0.000000
0.000000 0.122655 0.000000
0.000000 0.121162 0.000000
0.000000 0.119981 0.000000
0.000000 0.118785 0.000000
0.019984 0.117536 0.000000
0.041843 0.116219 0.000000
0.064557 0.114840 0.000000
0.090777 0.113232 0.000000
0.117289 0.111337 0.000000
0.143842 0.109106 0.000000
0.170795 0.106477 0.000000
0.198405 0.103378 0.000000
0.226871 0.099718 0.000000
0.256361 0.095387 0.000000
0.287020 0.090241 0.000000
0.318981 0.084098 0.000000
0.352371 0.076539 0.000000
0.387312 0.068120 0.000000
0.423922 0.058468 0.000000
0.461905 0.047417 0.000000
0.499029 0.034778 0.000000
0.534957 0.020337 0.000000
0.569690 0.003852 0.000000
0.603225 0.000000 0.000000
0.635551 0.000000 0.000000
0.666657 0.000000 0.000000
0.696526 0.000000 0.000000
0.725139 0.000000 0.000000
0.752473 0.000000 0.000000
0.778505 0.000000 0.000000
0.803206 0.000000 0.000000
0.826550 0.000000 0.000000
0.848504 0.000000 0.000000
0.869036 0.000000 0.000000
0.888111 0.000000 0.000000
0.905693 0.000000 0.000000
0.921743 0.000000 0.000000
0.936221 0.000000 0.000000
0.949085 0.000000 0.000000
0.960289 0.000000 0.000000
0.969787 0.000000 0.000000
0.977530 0.000000 0.000000
0.983467 0.000000 0.000000
0.987543 0.000000 0.000000
0.989702 0.000000 0.000000
0.990294 0.000000 0.000000
0.990755 0.000000 0.000000
0.991216 0.000000 0.000000
0.991678 0.000000 0.000000
0.992140 0.000000 0.000000
0.992603 0.000000 0.000000
0.993066 0.000000 0.000000
0.993530 0.000000 0.000000
0.993996 0.000000 0.000000
0.994463 0.000000 0.000000
0.994931 0.000000 0.000000
0.995401 0.000000 0.000000
0.995873 0.000000 0.000000
0.996347 0.000000 0.000000
0.996823 0.000000 0.000000
0.997302 0.000000 0.000000
0.997783 0.000000 0.000000
0.998266 0.000000 0.000000
0.998753 0.000000 0.000000
0.999243 0.000000 0.000000
0.000000 0.140668 0.000000
0.000000 0.139312 0.000000
0.000000 0.138240 0.000000
0.000000 0.137156 0.000000
0.007370 0.136026 0.000000
0.029230 0.134836 0.000000
0.051943 0.133590 0.000000
0.078210 0.132140 0.000000
0.106875 0.130435 0.000000
0.134866 0.128431 0.000000
0.162941 0.126076 0.000000
0.191457 0.123308 0.000000
0.220674 0.120052 0.000000
0.250798 0.116216 0.000000
0.282000 0.111688 0.000000
0.314433 0.106324 0.000000
0.348235 0.099939 0.000000
0.383539 0.092286 0.000000
0.420472 0.083026 0.000000
0.458863 0.071735 0.000000
0.496455 0.059096 0.000000
0.532778 0.044655 0.000000
0.567846 0.028170 0.000000
0.601665 0.009368 0.000000
0.634233 0.000000 0.000000
0.665545 0.000000 0.000000
0.695589 0.000000 0.000000
0.724351 0.000000 0.000000
0.751812 0.000000 0.000000
0.777951 0.000000 0.000000
0.802745 0.000000 0.000000
0.826167 0.000000 0.000000
0.848187 0.000000 0.000000
0.868776 0.000000 0.000000
0.887899 0.000000 0.000000
0.905522 0.000000 0.000000
0.921606 0.000000 0.000000
0.936113 0.000000 0.000000
0.949001 0.000000 0.000000
0.960225 0.000000 0.000000
0.969740 0.000000 0.000000
0.977497 0.000000 0.000000
0.983446 0.000000 0.000000
0.987531 0.000000 0.000000
0.989698 0.000000 0.000000
0.990293 0.000000 0.000000
0.990754 0.000000 0.000000
0.991215 0.000000 0.000000
0.991677 0.000000 0.000000
0.992139 0.000000 0.000000
0.992602 0.000000 0.000000
0.993065 0.000000 0.000000
0.993530 0.000000 0.000000
0.993995 0.000000 0.000000
0.994462 0.000000 0.000000
0.994931 0.000000 0.000000
0.995401 0.000000 0.000000
0.995873 0.000000 0.000000
0.996347 0.000000 0.000000
0.996823 0.000000 0.000000
0.997301 0.000000 0.000000
0.997782 0.000000 0.000000
0.998266 0.000000 0.000000
0.998753 0.000000 0.000000
0.999243 0.000000 0.000000
0.000000 0.159704 0.000000
0.000000 0.158469 0.000000
0.000000 0.157495 0.000000
0.000000 0.156510 0.000000
0.000000 0.155484 0.000000
0.014580 0.154404 0.000000
0.037293 0.153276 0.000000
0.063560 0.151964 0.000000
0.093908 0.150423 0.000000
0.123881 0.148615 0.000000
0.153441 0.146494 0.000000
0.183123 0.144008 0.000000
0.213287 0.141093 0.000000
0.244198 0.137671 0.000000
0.276067 0.133650 0.000000
0.309072 0.128913 0.000000
0.343371 0.123315 0.000000
0.379111 0.116669 0.000000
0.416430 0.108730 0.000000
0.455278 0.099157 0.000000
0.493427 0.087464 0.000000
0.530219 0.072898 0.000000
0.565684 0.056413 0.000000
0.599838 0.037611 0.000000
0.632691 0.016183 0.000000
0.664245 0.000000 0.000000
0.694494 0.000000 0.000000
0.723430 0.000000 0.000000
0.751040 0.000000 0.000000
0.777306 0.000000 0.000000
0.802207 0.000000 0.000000
0.825720 0.000000 0.000000
0.847819 0.000000 0.000000
0.868473 0.000000 0.000000
0.887652 0.000000 0.000000
0.905322 0.000000 0.000000
0.921446 0.000000 0.000000
0.935987 0.000000 0.000000
0.948903 0.000000 0.000000
0.960151 0.000000 0.000000
0.969686 0.000000 0.000000
0.977459 0.000000 0.000000
0.983421 0.000000 0.000000
0.987518 0.000000 0.000000
0.989694 0.000000 0.000000
0.990291 0.000000 0.000000
0.990753 0.000000 0.000000
0.991214 0.000000 0.000000
0.991676 0.000000 0.000000
0.992138 0.000000 0.000000
0.992601 0.000000 0.000000
0.993065 0.000000 0.000000
0.993529 0.000000 0.000000
0.993995 0.000000 0.000000
0.994462 0.000000 0.000000
0.994930 0.000000 0.000000
0.995401 0.000000 0.000000
0.995873 0.000000 0.000000
0.996347 0.000000 0.000000
0.996823 0.000000 0.000000
0.997301 0.000000 0.000000
0.997782 0.000000 0.000000
0.998266 0.000000 0.000000
0.998753 0.000000 0.000000
0.999243 0.000000 0.000000
0.000000 0.179821 0.000000
0.000000 0.178695 0.000000
0.000000 0.177806 0.000000
0.000000 0.176909 0.000000
0.000000 0.175976 0.000000
0.000000 0.174994 0.000000
0.020312 0.173969 0.000000
0.046580 0.172778 0.000000
0.077207 0.171381 0.000000
0.110256 0.169744 0.000000
0.141851 0.167827 0.000000
0.173070 0.165584 0.000000
0.204449 0.162960 0.000000
0.236349 0.159889 0.000000
0.269043 0.156292 0.000000
0.302749 0.152073 0.000000
0.337651 0.147114 0.000000
0.373915 0.141268 0.000000
0.411695 0.134344 0.000000
0.451050 0.126095 0.000000
0.489864 0.116183 0.000000
0.527215 0.104126 0.000000
0.563149 0.089194 0.000000
0.597700 0.070348 0.000000
0.630888 0.048920 0.000000
0.662725 0.024516 0.000000
0.693216 0.000000 0.000000
0.722357 0.000000 0.000000
0.750141 0.000000 0.000000
0.776555 0.000000 0.000000
0.801581 0.000000 0.000000
0.825201 0.000000 0.000000
0.847390 0.000000 0.000000
0.868121 0.000000 0.000000
0.887365 0.000000 0.000000
0.905090 0.000000 0.000000
0.921261 0.000000 0.000000
0.935841 0.000000 0.000000
0.948789 0.000000 0.000000
0.960065 0.000000 0.000000
0.969623 0.000000 0.000000
0.977415 0.000000 0.000000
0.983392 0.000000 0.000000
0.987502 0.000000 0.000000
0.989689 0.000000 0.000000
0.990289 0.000000 0.000000
0.990751 0.000000 0.000000
0.991213 0.000000 0.000000
0.991675 0.000000 0.000000
0.992137 0.000000 0.000000
0.992600 0.000000 0.000000
0.993064 0.000000 0.000000
0.993529 0.000000 0.000000
0.993994 0.000000 0.000000
0.994461 0.000000 0.000000
0.994930 0.000000 0.000000
0.995400 0.000000 0.000000
0.995872 0.000000 0.000000
0.996346 0.000000 0.000000
0.996822 0.000000 0.000000
0.997301 0.000000 0.000000
0.997782 0.000000 0.000000
0.998266 0.000000 0.000000
0.998753 0.000000 0.000000
0.999243 0.000000 0.000000
0.000000 0.201078 0.000000
0.000000 0.200049 0.000000
0.000000 0.199238 0.000000
0.000000 0.198419 0.000000
0.000000 0.197568 0.000000
0.000000 0.196673 0.000000
0.000666 0.195739 0.000000
0.026934 0.194655 0.000000
0.057562 0.193385 0.000000
0.092999 0.191898 0.000000
0.127528 0.190159 0.000000
0.160842 0.188128 0.000000
0.193813 0.185756 0.000000
0.226978 0.182986 0.000000
0.260706 0.179750 0.000000
0.295277 0.175968 0.000000
0.330916 0.171541 0.000000
0.367816 0.166348 0.000000
0.406149 0.160238 0.000000
0.446060 0.153018 0.000000
0.485670 0.144437 0.000000
0.523685 0.134157 0.000000
0.560176 0.121700 0.000000
0.595196 0.106350 0.000000
0.628780 0.086940 0.000000
0.660952 0.062391 0.000000
0.691725 0.034617 0.000000
0.721106 0.003024 0.000000
0.749094 0.000000 0.000000
0.775680 0.000000 0.000000
0.800853 0.000000 0.000000
0.824597 0.000000 0.000000
0.846892 0.000000 0.000000
0.867712 0.000000 0.000000
0.887032 0.000000 0.000000
0.904821 0.000000 0.000000
0.921046 0.000000 0.000000
0.935671 0.000000 0.000000
0.948658 0.000000 0.000000
0.959965 0.000000 0.000000
0.969549 0.000000 0.000000
0.977364 0.000000 0.000000
0.983359 0.000000 0.000000
0.987484 0.000000 0.000000
0.989682 0.000000 0.000000
0.990287 0.000000 0.000000
0.990749 0.000000 0.000000
0.991211 0.000000 0.000000
0.991673 0.000000 0.000000
0.992136 0.000000 0.000000
0.992599 0.000000 0.000000
0.993063 0.000000 0.000000
0.993528 0.000000 0.000000
0.993994 0.000000 0.000000
0.994461 0.000000 0.000000
0.994929 0.000000 0.000000
0.995400 0.000000 0.000000
0.995872 0.000000 0.000000
0.996346 0.000000 0.000000
0.996822 0.000000 0.000000
0.997301 0.000000 0.000000
0.997782 0.000000 0.000000
0.998266 0.000000 0.000000
0.998752 0.000000 0.000000
0.999242 0.000000 0.000000
0.000000 0.223537 0.000000
0.000000 0.222595 0.000000
0.000000 0.221853 0.000000
0.000000 0.221105 0.000000
0.000000 0.220327 0.000000
0.000000 0.219509 0.000000
0.000000 0.218657 0.000000
0.004246 0.217668 0.000000
0.034873 0.216510 0.000000
0.070516 0.215156 0.000000
0.109471 0.213575 0.000000
0.145781 0.211729 0.000000
0.180911 0.209577 0.000000
0.215728 0.207068 0.000000
0.250775 0.204145 0.000000
0.286428 0.200736 0.000000
0.322974 0.196759 0.000000
0.360648 0.192112 0.000000
0.399651 0.186670 0.000000
0.440163 0.180280 0.000000
0.480725 0.172745 0.000000
0.519535 0.163810 0.000000
0.556690 0.153134 0.000000
0.592265 0.140240 0.000000
0.626316 0.124423 0.000000
0.658882 0.104555 0.000000
0.689988 0.078357 0.000000
0.719650 0.046764 0.000000
0.747875 0.010847 0.000000
0.774663 0.000000 0.000000
0.800008 0.000000 0.000000
0.823896 0.000000 0.000000
0.846313 0.000000 0.000000
0.867238 0.000000 0.000000
0.886646 0.000000 0.000000
0.904509 0.000000 0.000000
0.920796 0.000000 0.000000
0.935474 0.000000 0.000000
0.948505 0.000000 0.000000
0.959849 0.000000 0.000000
0.969464 0.000000 0.000000
